X:2
T:Mazurka CGF 7- (mz06477)
S:Hanny Christen. Bd.IV  Aargau, Basel I. S.173 (mz06477) orig. G,D,C
S:Basel - Repertoire der 'Dorfmusik Binningen. S.140-201
S:Ãœberliefert durch Jakob LÃ¼scher-MÃ¼ller
%%MIDI program 21
R:Mazurka
M:3/4
L:1/8
K:C %%MIDI gchordon
"C"C>[B,D] [EC]>[DF] [EG]>[FA] | T[EG]2 [eG]>B [GE]2 | "G7"T[DF]2 [dF]>B [DF]2 | "C"E2 [Ge]>c E2 | C>[B,D] [EC]>[DF] [EG]>[FA] | T[EG]2 [eG]>B [GE]2 | 
"G7"T[DF]2 [dF]>B G>B | "C"c2c2z2 :: [K:G] "Am"A2 A>B c>d | "E7"e4e2 | "Am"e2 e>f e>d | "G7"fed4 | 
G2 G>A B>c | d4g2 | f>e d>c BA | G2G2"_>Teil A"z2 :: [K:F] ("F"Ac) c3d | "Gm"Tc2 B>AB2 | 
("C7"CB)B3c | "F"TB2 A>GA2 | (Ac) c3d | "Gm"Tc2 B>AB2 | ("C7"Ac) c2 d>e | "F"f2f2z2 :: "C7"cC B2 A>G | 
"F"TG2 F>EF2 | ("C7"CE) Gc eg | ("F"fe) (fa) c2 | "C7"cC B2 A>G | "F"TG2 F>EF2 | "C7"CE Gc fg | "F"f2f2"_Fine"z2 :| 
W:Parts: ABACD
% mz06477
% Dez 27, 2016

